X:373
T:Florsens polska.
R:polska
S:Upptecknad efter som han själv spelat densamma.
O:Gotland, Burs
M:3/4
L:1/16
K:F
fcAc cBGB A2F2|fcAc cBGA F4|fefg a2a2 c4|fefa gfed c4|
fcAc cBGB A2F2|fcAc cBGA F4|fefg a2a2 c3g|gbeg g4f4::
c3f facf facf|e3g bgeg bged|c3f facf facf|e3g bgeg bgec|
fefa gfed d2c2|cABG G4 F4:|

